Themes/OneUI/assets/svg/smartthings.svg

<?xml version="1.0" encoding="UTF-8" standalone="no"?>
<svg
   width="24.305599"
   height="25"
   viewBox="0 0 24.305599 25"
   fill="none"
   version="1.1"
   id="svg2326"
   sodipodi:docname="smartthings.svg"
   xmlns:inkscape="http://www.inkscape.org/namespaces/inkscape"
   xmlns:sodipodi="http://sodipodi.sourceforge.net/DTD/sodipodi-0.dtd"
   xmlns="http://www.w3.org/2000/svg"
   xmlns:svg="http://www.w3.org/2000/svg">
  <sodipodi:namedview
     id="namedview2328"
     pagecolor="#ffffff"
     bordercolor="#666666"
     borderopacity="1.0"
     inkscape:showpageshadow="2"
     inkscape:pageopacity="0.0"
     inkscape:pagecheckerboard="0"
     inkscape:deskcolor="#d1d1d1" />
  <g
     clip-path="url(#clip0_2_65)"
     id="g2319">
    <path
       d="M 21.4598,2.77778 C 19.2284,0.46875 15.8864,0 12.1528,0 8.4158,0 5.07716,0.46875 2.84578,2.77778 1.07012,4.61806 0,7.62847 0,12.5 0,17.3715 1.07012,20.3819 2.84578,22.2222 5.07716,24.5312 8.41917,25 12.1528,25 c 3.7336,0 7.0756,-0.4688 9.3036,-2.7778 1.779,-1.8403 2.8492,-4.8507 2.8492,-9.7222 0,-4.87153 -1.0702,-7.88194 -2.8458,-9.72222 z"
       fill="#0381fe"
       id="path2315" />
    <path
       d="m 12.4487,14.934 c -1.0553,0 -1.9106,-0.8784 -1.9106,-1.9548 0,-1.0799 0.8553,-1.9584 1.9106,-1.9584 1.0519,0 1.9106,0.8785 1.9106,1.9584 0,1.0764 -0.8587,1.9548 -1.9106,1.9548 z M 11.1451,6.22222 c 0,-0.73611 0.5863,-1.33333 1.3036,-1.33333 0.7174,0 1.3037,0.59722 1.3037,1.33333 0,0.73611 -0.5863,1.33334 -1.3037,1.33334 -0.7173,0 -1.3036,-0.59723 -1.3036,-1.33334 z M 7.41006,11.3021 C 7.18933,12.0035 6.4513,12.3854 5.76844,12.1597 5.08558,11.9306 4.70966,11.1771 4.93383,10.4792 5.10972,9.91667 5.62359,9.55556 6.17194,9.55556 c 0.13451,0 0.26901,0.02083 0.40351,0.06597 0.68286,0.22916 1.05878,0.98267 0.83461,1.68057 z m 7.99084,1.6771 c 0,-1.5174 -1.0967,-2.7709 -2.5176,-2.98614 V 8.40278 C 13.8731,8.19444 14.6215,7.29514 14.6215,6.22222 14.6215,4.99653 13.6454,4 12.4487,4 11.252,4 10.276,4.99653 10.276,6.22222 c 0,1.07292 0.7484,1.97222 1.7382,2.18056 V 9.99306 C 11.0451,10.1389 10.2312,10.7674 9.80696,11.6319 L 8.33088,11.1424 C 8.44469,10.1146 7.84115,9.10764 6.84101,8.77778 5.70291,8.39931 4.47515,9.03819 4.10613,10.2049 c -0.36902,1.1632 0.25521,2.4201 1.3933,2.7986 0.22417,0.0764 0.44834,0.1111 0.66907,0.1111 0.77597,0 1.50366,-0.4306 1.88993,-1.1285 l 1.47952,0.4931 c -0.02759,0.1632 -0.04483,0.3298 -0.04483,0.5 0,1.6666 1.32778,3.0208 2.95558,3.0208 1.6278,0 2.9522,-1.3542 2.9522,-3.0208 z m 4.4868,-1.4827 c -0.1586,0.316 -0.4276,0.5521 -0.7587,0.6632 -0.3311,0.1111 -0.6863,0.0799 -0.9967,-0.0798 -0.3104,-0.1632 -0.538,-0.4375 -0.6449,-0.7778 -0.2242,-0.6979 0.1517,-1.45141 0.8346,-1.68057 0.1345,-0.04514 0.269,-0.06597 0.4035,-0.06597 0.5484,0 1.0622,0.36111 1.2381,0.92364 0.1104,0.3368 0.0793,0.6979 -0.0759,1.0173 z m 0.9036,-1.2916 C 20.4223,9.03819 19.1945,8.39931 18.053,8.77778 17.0563,9.10764 16.4528,10.1146 16.5666,11.1424 l -0.607,0.2014 0.2655,0.8472 0.6105,-0.2049 c 0.2069,0.3785 0.5173,0.684 0.9035,0.8854 0.3104,0.1598 0.645,0.2431 0.983,0.2431 0.2276,0 0.4517,-0.0347 0.6759,-0.1111 0.5518,-0.1806 1.0002,-0.5729 1.2623,-1.1042 0.2621,-0.5278 0.3104,-1.1319 0.131,-1.6944 z m -3.6971,9.3194 c -0.2828,0.2083 -0.6277,0.2917 -0.9691,0.2361 -0.3449,-0.0555 -0.6484,-0.2465 -0.8518,-0.5347 -0.4208,-0.5938 -0.2932,-1.4306 0.2897,-1.8611 0.231,-0.1702 0.4966,-0.2535 0.7621,-0.2535 0.4036,0 0.8036,0.191 1.0554,0.5486 0.4242,0.5938 0.2931,1.4306 -0.2863,1.8646 z m -1.6657,-3.1042 -0.376,-0.5312 -0.7035,0.5243 0.3759,0.5312 c -0.6828,0.7605 -0.7691,1.9375 -0.1552,2.8056 0.3414,0.4792 0.845,0.7951 1.4175,0.8889 0.1172,0.0174 0.231,0.0278 0.3448,0.0278 0.4553,0 0.8967,-0.1459 1.2726,-0.4236 0.9692,-0.7223 1.183,-2.1146 0.4794,-3.1077 -0.6139,-0.868 -1.7347,-1.1458 -2.6555,-0.7153 z m -5.80433,2.8056 c -0.4242,0.5972 -1.24156,0.7292 -1.82095,0.2986 -0.58285,-0.434 -0.71045,-1.2708 -0.2897,-1.8646 0.20693,-0.2882 0.50697,-0.4791 0.85185,-0.5347 0.06897,-0.0104 0.13795,-0.0139 0.20692,-0.0139 0.27246,0 0.53801,0.0868 0.76218,0.2535 0.58285,0.4305 0.71043,1.2673 0.2897,1.8611 z M 10.1725,16.941 10.5484,16.4132 9.84489,15.8889 9.46898,16.4201 C 9.08271,16.2396 8.65507,16.1806 8.23087,16.2465 7.65492,16.3403 7.1514,16.6563 6.81342,17.1354 c -0.707,0.9931 -0.48973,2.3854 0.47938,3.1077 0.38281,0.2847 0.83115,0.4236 1.2726,0.4236 0.67251,0 1.33467,-0.3195 1.7589,-0.9167 0.6173,-0.8681 0.5276,-2.0451 -0.1518,-2.809 z"
       fill="#ffffff"
       id="path2317" />
  </g>
  <defs
     id="defs2324">
    <clipPath
       id="clip0_2_65">
      <rect
         width="25"
         height="25"
         fill="#ffffff"
         id="rect2321"
         x="0"
         y="0" />
    </clipPath>
  </defs>
</svg>

<svg width="25" height="25" viewBox="0 0 25 25" fill="none" xmlns="http://www.w3.org/2000/svg">
<g clip-path="url(#clip0_2_65)">
<path d="M21.4598 2.77778C19.2284 0.46875 15.8864 0 12.1528 0C8.4158 0 5.07716 0.46875 2.84578 2.77778C1.07012 4.61806 0 7.62847 0 12.5C0 17.3715 1.07012 20.3819 2.84578 22.2222C5.07716 24.5312 8.41917 25 12.1528 25C15.8864 25 19.2284 24.5312 21.4564 22.2222C23.2354 20.3819 24.3056 17.3715 24.3056 12.5C24.3056 7.62847 23.2354 4.61806 21.4598 2.77778Z" fill="#0381FE"/>
<path d="M12.4487 14.934C11.3934 14.934 10.5381 14.0556 10.5381 12.9792C10.5381 11.8993 11.3934 11.0208 12.4487 11.0208C13.5006 11.0208 14.3593 11.8993 14.3593 12.9792C14.3593 14.0556 13.5006 14.934 12.4487 14.934ZM11.1451 6.22222C11.1451 5.48611 11.7314 4.88889 12.4487 4.88889C13.1661 4.88889 13.7524 5.48611 13.7524 6.22222C13.7524 6.95833 13.1661 7.55556 12.4487 7.55556C11.7314 7.55556 11.1451 6.95833 11.1451 6.22222ZM7.41006 11.3021C7.18933 12.0035 6.4513 12.3854 5.76844 12.1597C5.08558 11.9306 4.70966 11.1771 4.93383 10.4792C5.10972 9.91667 5.62359 9.55556 6.17194 9.55556C6.30645 9.55556 6.44095 9.57639 6.57545 9.62153C7.25831 9.85069 7.63423 10.6042 7.41006 11.3021ZM15.4009 12.9792C15.4009 11.4618 14.3042 10.2083 12.8833 9.99306V8.40278C13.8731 8.19444 14.6215 7.29514 14.6215 6.22222C14.6215 4.99653 13.6454 4 12.4487 4C11.252 4 10.276 4.99653 10.276 6.22222C10.276 7.29514 11.0244 8.19444 12.0142 8.40278V9.99306C11.0451 10.1389 10.2312 10.7674 9.80696 11.6319L8.33088 11.1424C8.44469 10.1146 7.84115 9.10764 6.84101 8.77778C5.70291 8.39931 4.47515 9.03819 4.10613 10.2049C3.73711 11.3681 4.36134 12.625 5.49943 13.0035C5.7236 13.0799 5.94777 13.1146 6.1685 13.1146C6.94447 13.1146 7.67216 12.684 8.05843 11.9861L9.53795 12.4792C9.51036 12.6424 9.49312 12.809 9.49312 12.9792C9.49312 14.6458 10.8209 16 12.4487 16C14.0765 16 15.4009 14.6458 15.4009 12.9792ZM19.8877 11.4965C19.7291 11.8125 19.4601 12.0486 19.129 12.1597C18.7979 12.2708 18.4427 12.2396 18.1323 12.0799C17.8219 11.9167 17.5943 11.6424 17.4874 11.3021C17.2632 10.6042 17.6391 9.85069 18.322 9.62153C18.4565 9.57639 18.591 9.55556 18.7255 9.55556C19.2739 9.55556 19.7877 9.91667 19.9636 10.4792C20.074 10.816 20.0429 11.1771 19.8877 11.4965ZM20.7913 10.2049C20.4223 9.03819 19.1945 8.39931 18.053 8.77778C17.0563 9.10764 16.4528 10.1146 16.5666 11.1424L15.9596 11.3438L16.2251 12.191L16.8356 11.9861C17.0425 12.3646 17.3529 12.6701 17.7391 12.8715C18.0495 13.0313 18.3841 13.1146 18.7221 13.1146C18.9497 13.1146 19.1738 13.0799 19.398 13.0035C19.9498 12.8229 20.3982 12.4306 20.6603 11.8993C20.9224 11.3715 20.9707 10.7674 20.7913 10.2049ZM17.0942 19.5243C16.8114 19.7326 16.4665 19.816 16.1251 19.7604C15.7802 19.7049 15.4767 19.5139 15.2733 19.2257C14.8525 18.6319 14.9801 17.7951 15.563 17.3646C15.794 17.1944 16.0596 17.1111 16.3251 17.1111C16.7287 17.1111 17.1287 17.3021 17.3805 17.6597C17.8047 18.2535 17.6736 19.0903 17.0942 19.5243ZM15.4285 16.4201L15.0525 15.8889L14.349 16.4132L14.7249 16.9444C14.0421 17.7049 13.9558 18.8819 14.5697 19.75C14.9111 20.2292 15.4147 20.5451 15.9872 20.6389C16.1044 20.6563 16.2182 20.6667 16.332 20.6667C16.7873 20.6667 17.2287 20.5208 17.6046 20.2431C18.5738 19.5208 18.7876 18.1285 18.084 17.1354C17.4701 16.2674 16.3493 15.9896 15.4285 16.4201ZM9.62417 19.2257C9.19997 19.8229 8.38261 19.9549 7.80322 19.5243C7.22037 19.0903 7.09277 18.2535 7.51352 17.6597C7.72045 17.3715 8.02049 17.1806 8.36537 17.125C8.43434 17.1146 8.50332 17.1111 8.57229 17.1111C8.84475 17.1111 9.1103 17.1979 9.33447 17.3646C9.91732 17.7951 10.0449 18.6319 9.62417 19.2257ZM10.1725 16.941L10.5484 16.4132L9.84489 15.8889L9.46898 16.4201C9.08271 16.2396 8.65507 16.1806 8.23087 16.2465C7.65492 16.3403 7.1514 16.6563 6.81342 17.1354C6.10642 18.1285 6.32369 19.5208 7.2928 20.2431C7.67561 20.5278 8.12395 20.6667 8.5654 20.6667C9.23791 20.6667 9.90007 20.3472 10.3243 19.75C10.9416 18.8819 10.8519 17.7049 10.1725 16.941Z" fill="white"/>
</g>
<defs>
<clipPath id="clip0_2_65">
<rect width="25" height="25" fill="white"/>
</clipPath>
</defs>
</svg>
